site/src/frontend/rounds/murder_in_mitropolis/assets/border-bottom.svg

<?xml version="1.0" encoding="UTF-8"?>
<!DOCTYPE svg  PUBLIC '-//W3C//DTD SVG 1.1//EN'  'http://www.w3.org/Graphics/SVG/1.1/DTD/svg11.dtd'>
<svg width="26px" height="82px" clip-rule="evenodd" fill-rule="evenodd" stroke-linejoin="round" stroke-miterlimit="2" version="1.1" xml:space="preserve" xmlns="http://www.w3.org/2000/svg"><g transform="translate(414.58 34.781)"><rect x="-414.58" y="-34.781" width="26" height="82" fill="none"/><clipPath id="a"><rect x="-414.58" y="-34.781" width="26" height="82"/></clipPath><g clip-path="url(#a)"><g transform="matrix(4.1667 1.5105e-16 -1.5105e-16 -2.9332 -535.23 400.2)"><path d="m0.035 1.074c0 0.926 0.156 1.27 1.121 2.453 2.004 2.461 3.211 5.879 4.078 11.578 0.516 3.367 0.578 14.262 0.118 19.68-0.754 8.84-2.243 19.332-4.27 30.117l-1.082 5.762 0.102 5.879 0.105 5.883 1.316 5.21 1.313 5.211-1.398 0.161-1.403 0.16v7.683l2.887-0.168c12.652-0.738 23.277-5.707 31.504-14.718 0.633-0.696 1.191-1.262 1.242-1.262s0.723 0.676 1.488 1.496c4.875 5.219 9.926 8.773 16.039 11.289 4.782 1.969 11.325 3.297 16.246 3.297h2.114v-7.68h-1.328c-0.872 0-1.368-0.109-1.446-0.312-0.066-0.176 0.504-2.848 1.266-5.942l1.387-5.629v-5.398c0-5.391 0-5.41-1.012-10.441-1.652-8.239-3.231-18.649-4.012-26.52-1.828-18.324-0.375-31.059 4.063-35.621 0.914-0.941 1.082-1.266 1.082-2.066 0-1.133-0.188-1.168-1.66-0.309-6.524 3.801-13.668 12.949-19.118 24.492-5.597 11.848-10.422 26.488-14.14 42.899-0.477 2.109-0.907 3.871-0.953 3.918-0.043 0.043-0.317-0.981-0.606-2.274-2.59-11.644-5.762-22.547-9.41-32.351-5.234-14.067-11.23-24.68-17.813-31.528-1.671-1.738-6.265-5.437-7.195-5.789-0.617-0.234-0.625-0.222-0.625 0.84zm63.824 8.656c-5.261 11.653-8.785 33.766-10.187 63.934-0.195 4.156-0.356 9.316-0.356 11.461 0 2.144-0.058 3.898-0.128 3.898-0.321 0-3.262-1.609-5.129-2.808-2.997-1.922-6.157-4.559-8.789-7.325-2.708-2.847-2.622-1.586-0.7-10.027 6.102-26.816 14.852-48.156 24.242-59.113 0.879-1.028 1.641-1.824 1.696-1.774 0.054 0.055-0.238 0.844-0.649 1.754zm-54.679 0.766c2.636 3.258 6.289 9.098 8.711 13.914 4 7.965 8.804 21.172 12.117 33.301 1.258 4.617 3.707 15.008 4.168 17.699l0.277 1.625-2.148 2.18c-2.5 2.531-5.528 4.953-8.489 6.785-1.949 1.203-4.882 2.785-5.175 2.785-0.071 0-0.125-1.773-0.125-3.941 0-14.293-2.024-38.754-4.317-52.192-1.5-8.801-3.609-16.875-5.652-21.648-0.449-1.043-0.738-1.895-0.645-1.887 0.094 8e-3 0.672 0.629 1.278 1.379zm-1.082 5.121c4.238 12.578 7.207 34.961 8.257 62.246 0.133 3.434 0.239 7.504 0.239 9.043v2.805l-1.371 0.511c-2.973 1.114-8.293 2.403-9.914 2.403-0.508 0-0.786-0.985-2.887-10.192l-1.477-6.472 1.215-6.129c2.922-14.719 4.598-26.371 5.313-36.969 0.441-6.461 0.269-14.93-0.383-19.078-0.231-1.481 0.09-0.895 1.008 1.832zm55.746 2.383c-0.332 3.476-0.125 13.808 0.39 19.304 0.875 9.309 2.641 20.903 4.961 32.571l1.227 6.168-0.895 3.91c-0.492 2.152-1.379 5.93-1.968 8.394l-1.075 4.481-0.886-0.117c-2.157-0.289-5.657-1.114-7.856-1.848l-2.387-0.801-0.082-1.539c-0.043-0.847 0.039-4.996 0.188-9.219 0.816-23.445 3.055-43.609 6.285-56.64 0.852-3.422 2.121-7.645 2.262-7.504 0.054 0.055-0.02 1.332-0.164 2.84zm-63.793-0.438 0.015 8.942 0.586-1.918c1.582-5.164 2.407-11.457 1.789-13.664-0.339-1.207-1.269-2.297-1.961-2.297-0.425 0-0.445 0.371-0.429 8.937zm69.777-8.347c-1.117 1.121-1.41 3.441-0.91 7.273 0.289 2.242 1.285 6.633 2.02 8.938l0.578 1.796 0.019-9.296 0.02-9.301h-0.567c-0.312 0-0.836 0.265-1.16 0.59zm-34.406 81.187c-0.824 1.281-4.09 4.449-6.227 6.043-7.144 5.34-15.562 8.352-25.687 9.188l-3.473 0.289v10.582l3.121-0.164c12.227-0.641 23.344-4.688 30.953-11.258l1.942-1.68 1.851 1.649c3.086 2.746 5.438 4.324 9.313 6.257 5.996 2.989 13.66 4.805 21.762 5.153l2.578 0.113v-10.676l-3.059-0.148c-12.738-0.617-24.289-6.012-31.066-14.504-0.657-0.828-1.282-1.5-1.387-1.5s-0.387 0.297-0.621 0.656zm-0.715 6.707c-0.23 1.692-0.5 3.168-0.602 3.277-0.101 0.114-0.722-0.589-1.378-1.558l-1.196-1.766 1.711-1.593c0.942-0.875 1.75-1.555 1.797-1.512s-0.101 1.461-0.332 3.152zm4.457 1.863c-0.687 1.02-1.285 1.817-1.328 1.77-0.082-0.082-0.84-6.106-0.84-6.688 0-0.191 0.766 0.422 1.707 1.364l1.707 1.707-1.246 1.847zm-8.894 3 1.668 2.512-0.77 0.66c-0.426 0.364-0.828 0.664-0.895 0.672-0.066 4e-3 -0.796-1.273-1.621-2.84l-1.5-2.851 0.539-0.375c0.301-0.211 0.625-0.36 0.727-0.332 0.098 0.027 0.93 1.176 1.852 2.554zm14.023-2.023c0.445 0.336 0.422 0.422-0.719 2.625-0.648 1.254-1.351 2.512-1.562 2.793l-0.383 0.516-1.578-1.407 1.629-2.445c0.894-1.348 1.746-2.445 1.89-2.437 0.145 3e-3 0.473 0.164 0.723 0.355zm-18.844 5.137c0.809 1.504 1.465 2.773 1.465 2.812 0 0.043-0.426 0.293-0.949 0.563-0.899 0.457-0.965 0.461-1.168 0.062-0.391-0.761-2.254-5.847-2.168-5.918 0.387-0.316 1.074-0.558 1.203-0.426 0.086 0.09 0.813 1.399 1.617 2.907zm23.785-2.055c0 0.137-0.5 1.57-1.117 3.188l-1.117 2.937-0.922-0.469c-0.508-0.261-0.922-0.593-0.922-0.738s0.653-1.488 1.449-2.984c1.411-2.645 1.469-2.715 2.04-2.453 0.324 0.148 0.589 0.382 0.589 0.519zm-28.945 4.449c0.613 1.637 1.078 3.012 1.039 3.051-0.043 0.043-0.473 0.242-0.957 0.445l-0.875 0.368-0.973-3.086c-0.531-1.7-0.968-3.204-0.968-3.34 0-0.301 1.254-0.782 1.468-0.563 0.082 0.082 0.653 1.489 1.266 3.125zm33.984-2.191c0 0.484-1.668 5.883-1.878 6.086-0.09 0.082-0.559-0.024-1.043-0.239l-0.887-0.39 2.414-6.32 0.695 0.242c0.387 0.133 0.699 0.414 0.699 0.621zm-39.445 3.914c0.887 2.863 0.953 3.238 0.602 3.383-0.836 0.347-1.465 0.211-1.59-0.34-0.067-0.301-0.344-1.621-0.617-2.942-0.274-1.32-0.551-2.582-0.614-2.8-0.109-0.383 0.418-0.692 0.985-0.571 0.133 0.028 0.687 1.5 1.234 3.27zm44.445-2.77c0.047 0.039-0.222 1.539-0.593 3.332-0.653 3.145-0.696 3.258-1.282 3.254-0.843-4e-3 -1.277-0.336-1.125-0.867 0.075-0.246 0.524-1.723 1.004-3.277 0.813-2.641 0.907-2.821 1.395-2.672 0.289 0.09 0.558 0.191 0.601 0.23zm-49.734 3.891c0.363 1.746 0.594 3.242 0.516 3.32s-0.575 0.2-1.102 0.27l-0.961 0.129-0.137-1.051c-0.132-1-0.621-5.586-0.621-5.824 0-0.168 1.293-0.301 1.485-0.153 0.09 0.071 0.461 1.559 0.82 3.309zm54.77-2.938c0.039 0.036-0.071 1.563-0.243 3.391l-0.312 3.328-0.957-0.078c-0.527-0.043-0.988-0.109-1.027-0.148-0.059-0.059 0.765-4.16 1.273-6.328 0.102-0.442 0.234-0.52 0.66-0.391 0.293 0.09 0.567 0.191 0.606 0.226zm-60.809 0.657c0.156 0.746 0.645 6.23 0.562 6.312-0.035 0.035-0.554 0.102-1.148 0.149l-1.078 0.082-0.066-3.231c-0.04-1.773-0.016-3.367 0.05-3.539 0.067-0.172 0.446-0.312 0.844-0.312 0.555 0 0.75 0.125 0.836 0.539zm66.082 3.121-0.066 3.422-0.813 0.074c-0.445 0.043-0.891-0.012-0.988-0.117-0.098-0.11-0.035-1.547 0.137-3.199 0.171-1.649 0.316-3.133 0.328-3.301 8e-3 -0.168 0.328-0.297 0.742-0.297h0.726l-0.066 3.418zm-35.227 1.535c-4.984 3.449-11.984 6.707-18.421 8.578-4.657 1.352-8.329 1.992-14.039 2.442l-1.86 0.144v4.039h71.52v-4.316h-1.5c-2.09 0-7.184-0.621-9.84-1.2-7.828-1.707-15.563-5.082-22.817-9.968-0.679-0.457-1.293-0.824-1.359-0.817-0.07 0.012-0.824 0.504-1.684 1.098z" fill="#8e751c" fill-rule="nonzero"/></g><g transform="matrix(4.1667 0 2.4652e-32 -4.1667 -535.23 556.37)"><path d="m2.27 130.83c-1.211 0.582-1.098 2.32 0.195 3.047 0.515 0.289 0.75 0.297 1.347 0.05 1.438-0.593 1.532-2.488 0.157-3.113-0.711-0.324-1.004-0.32-1.699 0.016zm6.996 0.301c-0.657 0.652-0.727 1.105-0.313 1.886 0.652 1.223 1.723 1.446 2.738 0.571 0.422-0.364 0.645-0.793 0.645-1.246 0-0.836-1.008-1.801-1.887-1.801-0.328 0-0.859 0.265-1.183 0.59zm7.199 0c-0.653 0.652-0.727 1.105-0.313 1.886 0.637 1.196 1.664 1.434 2.692 0.629 1.269-1.004 0.449-3.105-1.211-3.105-0.321 0-0.844 0.265-1.168 0.59zm7.242-0.09c-0.828 0.648-0.844 1.711-0.043 2.511 0.324 0.325 0.867 0.59 1.211 0.59 0.848 0 1.801-1 1.801-1.89 0-0.821-0.938-1.711-1.801-1.711-0.293 0-0.82 0.226-1.168 0.5zm7.156 0.09c-0.324 0.324-0.59 0.871-0.59 1.211 0 0.8 1 1.8 1.801 1.8 0.344 0 0.887-0.265 1.211-0.59 0.801-0.8 0.785-1.863-0.043-2.511-0.84-0.66-1.66-0.629-2.379 0.09zm7.164-0.301c-1.207 0.582-1.093 2.32 0.2 3.047 0.511 0.289 0.75 0.297 1.343 0.05 1.438-0.593 1.532-2.488 0.157-3.113-0.711-0.324-1-0.32-1.7 0.016zm7.282 0.211c-0.829 0.648-0.848 1.711-0.043 2.511 0.324 0.325 0.867 0.59 1.211 0.59 0.847 0 1.796-1 1.796-1.89 0-0.821-0.937-1.711-1.796-1.711-0.297 0-0.821 0.226-1.168 0.5zm6.914 0.09c-0.653 0.652-0.727 1.105-0.309 1.886 0.637 1.196 1.66 1.434 2.688 0.629 1.273-1.004 0.453-3.105-1.211-3.105-0.317 0-0.844 0.265-1.168 0.59zm7.484-0.09c-0.457 0.359-0.633 0.719-0.633 1.301 0 1.347 1.649 2.269 2.66 1.492 1.145-0.879 1.141-2.332-0.011-2.926-0.93-0.484-1.262-0.461-2.016 0.133zm7.199 0c-0.875 0.687-0.875 1.914 0 2.605 1.039 0.817 2.051 0.567 2.711-0.668 0.418-0.789 0.133-1.644-0.695-2.07-0.93-0.484-1.262-0.461-2.016 0.133zm-66.871 5.98v4.801h71.52v-4.801h-71.52z" fill="#8e751c" fill-rule="nonzero"/></g></g></g></svg>

<?xml version="1.0" encoding="UTF-8" standalone="no"?><!DOCTYPE svg PUBLIC "-//W3C//DTD SVG 1.1//EN" "http://www.w3.org/Graphics/SVG/1.1/DTD/svg11.dtd"><svg width="26px" height="82px" version="1.1" xmlns="http://www.w3.org/2000/svg" xmlns:xlink="http://www.w3.org/1999/xlink" xml:space="preserve" xmlns:serif="http://www.serif.com/" style="fill-rule:evenodd;clip-rule:evenodd;stroke-linejoin:round;stroke-miterlimit:2;"><g id="Artboard3" transform="matrix(1,0,0,1,414.584,34.7811)"><rect x="-414.584" y="-34.781" width="26" height="82" style="fill:none;"/><clipPath id="_clip1"><rect x="-414.584" y="-34.781" width="26" height="82"/></clipPath><g clip-path="url(#_clip1)"><g transform="matrix(4.16667,1.51053e-16,-1.51053e-16,-2.93322,-535.233,400.198)"><path d="M0.035,1.074C0.035,2 0.191,2.344 1.156,3.527C3.16,5.988 4.367,9.406 5.234,15.105C5.75,18.472 5.812,29.367 5.352,34.785C4.598,43.625 3.109,54.117 1.082,64.902L0,70.664L0.102,76.543L0.207,82.426L1.523,87.636L2.836,92.847L1.438,93.008L0.035,93.168L0.035,100.851L2.922,100.683C15.574,99.945 26.199,94.976 34.426,85.965C35.059,85.269 35.617,84.703 35.668,84.703C35.719,84.703 36.391,85.379 37.156,86.199C42.031,91.418 47.082,94.972 53.195,97.488C57.977,99.457 64.52,100.785 69.441,100.785L71.555,100.785L71.555,93.105L70.227,93.105C69.355,93.105 68.859,92.996 68.781,92.793C68.715,92.617 69.285,89.945 70.047,86.851L71.434,81.222L71.434,75.824C71.434,70.433 71.434,70.414 70.422,65.383C68.77,57.144 67.191,46.734 66.41,38.863C64.582,20.539 66.035,7.804 70.473,3.242C71.387,2.301 71.555,1.976 71.555,1.176C71.555,0.043 71.367,0.008 69.895,0.867C63.371,4.668 56.227,13.816 50.777,25.359C45.18,37.207 40.355,51.847 36.637,68.258C36.16,70.367 35.73,72.129 35.684,72.176C35.641,72.219 35.367,71.195 35.078,69.902C32.488,58.258 29.316,47.355 25.668,37.551C20.434,23.484 14.438,12.871 7.855,6.023C6.184,4.285 1.59,0.586 0.66,0.234C0.043,0 0.035,0.012 0.035,1.074ZM63.859,9.73C58.598,21.383 55.074,43.496 53.672,73.664C53.477,77.82 53.316,82.98 53.316,85.125C53.316,87.269 53.258,89.023 53.188,89.023C52.867,89.023 49.926,87.414 48.059,86.215C45.062,84.293 41.902,81.656 39.27,78.89C36.562,76.043 36.648,77.304 38.57,68.863C44.672,42.047 53.422,20.707 62.812,9.75C63.691,8.722 64.453,7.926 64.508,7.976C64.562,8.031 64.27,8.82 63.859,9.73ZM9.18,10.496C11.816,13.754 15.469,19.594 17.891,24.41C21.891,32.375 26.695,45.582 30.008,57.711C31.266,62.328 33.715,72.719 34.176,75.41L34.453,77.035L32.305,79.215C29.805,81.746 26.777,84.168 23.816,86C21.867,87.203 18.934,88.785 18.641,88.785C18.57,88.785 18.516,87.012 18.516,84.844C18.516,70.551 16.492,46.09 14.199,32.652C12.699,23.851 10.59,15.777 8.547,11.004C8.098,9.961 7.809,9.109 7.902,9.117C7.996,9.125 8.574,9.746 9.18,10.496ZM8.098,15.617C12.336,28.195 15.305,50.578 16.355,77.863C16.488,81.297 16.594,85.367 16.594,86.906L16.594,89.711L15.223,90.222C12.25,91.336 6.93,92.625 5.309,92.625C4.801,92.625 4.523,91.64 2.422,82.433L0.945,75.961L2.16,69.832C5.082,55.113 6.758,43.461 7.473,32.863C7.914,26.402 7.742,17.933 7.09,13.785C6.859,12.304 7.18,12.89 8.098,15.617ZM63.844,18C63.512,21.476 63.719,31.808 64.234,37.304C65.109,46.613 66.875,58.207 69.195,69.875L70.422,76.043L69.527,79.953C69.035,82.105 68.148,85.883 67.559,88.347L66.484,92.828L65.598,92.711C63.441,92.422 59.941,91.597 57.742,90.863L55.355,90.062L55.273,88.523C55.23,87.676 55.312,83.527 55.461,79.304C56.277,55.859 58.516,35.695 61.746,22.664C62.598,19.242 63.867,15.019 64.008,15.16C64.062,15.215 63.988,16.492 63.844,18ZM0.051,17.562L0.066,26.504L0.652,24.586C2.234,19.422 3.059,13.129 2.441,10.922C2.102,9.715 1.172,8.625 0.48,8.625C0.055,8.625 0.035,8.996 0.051,17.562ZM69.828,9.215C68.711,10.336 68.418,12.656 68.918,16.488C69.207,18.73 70.203,23.121 70.938,25.426L71.516,27.222L71.535,17.926L71.555,8.625L70.988,8.625C70.676,8.625 70.152,8.89 69.828,9.215ZM35.422,90.402C34.598,91.683 31.332,94.851 29.195,96.445C22.051,101.785 13.633,104.797 3.508,105.633L0.035,105.922L0.035,116.504L3.156,116.34C15.383,115.699 26.5,111.652 34.109,105.082L36.051,103.402L37.902,105.051C40.988,107.797 43.34,109.375 47.215,111.308C53.211,114.297 60.875,116.113 68.977,116.461L71.555,116.574L71.555,105.898L68.496,105.75C55.758,105.133 44.207,99.738 37.43,91.246C36.773,90.418 36.148,89.746 36.043,89.746C35.938,89.746 35.656,90.043 35.422,90.402ZM34.707,97.109C34.477,98.801 34.207,100.277 34.105,100.386C34.004,100.5 33.383,99.797 32.727,98.828L31.531,97.062L33.242,95.469C34.184,94.594 34.992,93.914 35.039,93.957C35.086,94 34.938,95.418 34.707,97.109ZM39.164,98.972C38.477,99.992 37.879,100.789 37.836,100.742C37.754,100.66 36.996,94.636 36.996,94.054C36.996,93.863 37.762,94.476 38.703,95.418L40.41,97.125L39.164,98.972ZM30.27,101.972L31.938,104.484L31.168,105.144C30.742,105.508 30.34,105.808 30.273,105.816C30.207,105.82 29.477,104.543 28.652,102.976L27.152,100.125L27.691,99.75C27.992,99.539 28.316,99.39 28.418,99.418C28.516,99.445 29.348,100.594 30.27,101.972ZM44.293,99.949C44.738,100.285 44.715,100.371 43.574,102.574C42.926,103.828 42.223,105.086 42.012,105.367L41.629,105.883L40.051,104.476L41.68,102.031C42.574,100.683 43.426,99.586 43.57,99.594C43.715,99.597 44.043,99.758 44.293,99.949ZM25.449,105.086C26.258,106.59 26.914,107.859 26.914,107.898C26.914,107.941 26.488,108.191 25.965,108.461C25.066,108.918 25,108.922 24.797,108.523C24.406,107.762 22.543,102.676 22.629,102.605C23.016,102.289 23.703,102.047 23.832,102.179C23.918,102.269 24.645,103.578 25.449,105.086ZM49.234,103.031C49.234,103.168 48.734,104.601 48.117,106.219L47,109.156L46.078,108.687C45.57,108.426 45.156,108.094 45.156,107.949C45.156,107.804 45.809,106.461 46.605,104.965C48.016,102.32 48.074,102.25 48.645,102.512C48.969,102.66 49.234,102.894 49.234,103.031ZM20.289,107.48C20.902,109.117 21.367,110.492 21.328,110.531C21.285,110.574 20.855,110.773 20.371,110.976L19.496,111.344L18.523,108.258C17.992,106.558 17.555,105.054 17.555,104.918C17.555,104.617 18.809,104.136 19.023,104.355C19.105,104.437 19.676,105.844 20.289,107.48ZM54.273,105.289C54.273,105.773 52.605,111.172 52.395,111.375C52.305,111.457 51.836,111.351 51.352,111.136L50.465,110.746L52.879,104.426L53.574,104.668C53.961,104.801 54.273,105.082 54.273,105.289ZM14.828,109.203C15.715,112.066 15.781,112.441 15.43,112.586C14.594,112.933 13.965,112.797 13.84,112.246C13.773,111.945 13.496,110.625 13.223,109.304C12.949,107.984 12.672,106.722 12.609,106.504C12.5,106.121 13.027,105.812 13.594,105.933C13.727,105.961 14.281,107.433 14.828,109.203ZM59.273,106.433C59.32,106.472 59.051,107.972 58.68,109.765C58.027,112.91 57.984,113.023 57.398,113.019C56.555,113.015 56.121,112.683 56.273,112.152C56.348,111.906 56.797,110.429 57.277,108.875C58.09,106.234 58.184,106.054 58.672,106.203C58.961,106.293 59.23,106.394 59.273,106.433ZM9.539,110.324C9.902,112.07 10.133,113.566 10.055,113.644C9.977,113.722 9.48,113.844 8.953,113.914L7.992,114.043L7.855,112.992C7.723,111.992 7.234,107.406 7.234,107.168C7.234,107 8.527,106.867 8.719,107.015C8.809,107.086 9.18,108.574 9.539,110.324ZM64.309,107.386C64.348,107.422 64.238,108.949 64.066,110.777L63.754,114.105L62.797,114.027C62.27,113.984 61.809,113.918 61.77,113.879C61.711,113.82 62.535,109.719 63.043,107.551C63.145,107.109 63.277,107.031 63.703,107.16C63.996,107.25 64.27,107.351 64.309,107.386ZM3.5,108.043C3.656,108.789 4.145,114.273 4.062,114.355C4.027,114.39 3.508,114.457 2.914,114.504L1.836,114.586L1.77,111.355C1.73,109.582 1.754,107.988 1.82,107.816C1.887,107.644 2.266,107.504 2.664,107.504C3.219,107.504 3.414,107.629 3.5,108.043ZM69.582,111.164L69.516,114.586L68.703,114.66C68.258,114.703 67.812,114.648 67.715,114.543C67.617,114.433 67.68,112.996 67.852,111.344C68.023,109.695 68.168,108.211 68.18,108.043C68.188,107.875 68.508,107.746 68.922,107.746L69.648,107.746L69.582,111.164ZM34.355,112.699C29.371,116.148 22.371,119.406 15.934,121.277C11.277,122.629 7.605,123.269 1.895,123.719L0.035,123.863L0.035,127.902L71.555,127.902L71.555,123.586L70.055,123.586C67.965,123.586 62.871,122.965 60.215,122.386C52.387,120.679 44.652,117.304 37.398,112.418C36.719,111.961 36.105,111.594 36.039,111.601C35.969,111.613 35.215,112.105 34.355,112.699Z" style="fill:rgb(142,117,28);fill-rule:nonzero;"/></g><g transform="matrix(4.16667,0,2.46519e-32,-4.16667,-535.233,556.371)"><path d="M2.27,130.832C1.059,131.414 1.172,133.152 2.465,133.879C2.98,134.168 3.215,134.176 3.812,133.929C5.25,133.336 5.344,131.441 3.969,130.816C3.258,130.492 2.965,130.496 2.27,130.832ZM9.266,131.133C8.609,131.785 8.539,132.238 8.953,133.019C9.605,134.242 10.676,134.465 11.691,133.59C12.113,133.226 12.336,132.797 12.336,132.344C12.336,131.508 11.328,130.543 10.449,130.543C10.121,130.543 9.59,130.808 9.266,131.133ZM16.465,131.133C15.812,131.785 15.738,132.238 16.152,133.019C16.789,134.215 17.816,134.453 18.844,133.648C20.113,132.644 19.293,130.543 17.633,130.543C17.312,130.543 16.789,130.808 16.465,131.133ZM23.707,131.043C22.879,131.691 22.863,132.754 23.664,133.554C23.988,133.879 24.531,134.144 24.875,134.144C25.723,134.144 26.676,133.144 26.676,132.254C26.676,131.433 25.738,130.543 24.875,130.543C24.582,130.543 24.055,130.769 23.707,131.043ZM30.863,131.133C30.539,131.457 30.273,132.004 30.273,132.344C30.273,133.144 31.273,134.144 32.074,134.144C32.418,134.144 32.961,133.879 33.285,133.554C34.086,132.754 34.07,131.691 33.242,131.043C32.402,130.383 31.582,130.414 30.863,131.133ZM38.027,130.832C36.82,131.414 36.934,133.152 38.227,133.879C38.738,134.168 38.977,134.176 39.57,133.929C41.008,133.336 41.102,131.441 39.727,130.816C39.016,130.492 38.727,130.496 38.027,130.832ZM45.309,131.043C44.48,131.691 44.461,132.754 45.266,133.554C45.59,133.879 46.133,134.144 46.477,134.144C47.324,134.144 48.273,133.144 48.273,132.254C48.273,131.433 47.336,130.543 46.477,130.543C46.18,130.543 45.656,130.769 45.309,131.043ZM52.223,131.133C51.57,131.785 51.496,132.238 51.914,133.019C52.551,134.215 53.574,134.453 54.602,133.648C55.875,132.644 55.055,130.543 53.391,130.543C53.074,130.543 52.547,130.808 52.223,131.133ZM59.707,131.043C59.25,131.402 59.074,131.762 59.074,132.344C59.074,133.691 60.723,134.613 61.734,133.836C62.879,132.957 62.875,131.504 61.723,130.91C60.793,130.426 60.461,130.449 59.707,131.043ZM66.906,131.043C66.031,131.73 66.031,132.957 66.906,133.648C67.945,134.465 68.957,134.215 69.617,132.98C70.035,132.191 69.75,131.336 68.922,130.91C67.992,130.426 67.66,130.449 66.906,131.043ZM0.035,137.023L0.035,141.824L71.555,141.824L71.555,137.023L0.035,137.023Z" style="fill:rgb(142,117,28);fill-rule:nonzero;"/></g></g></g></svg>
